X:1
T:Title
%%score 1 2 3 4
L:1/8
M:4/2
K:C
V:1 treble nm="Part_1"
V:2 treble-8 nm="Part_2"
V:3 treble-8 nm="Part_3"
V:4 bass nm="Part_4"
V:1
 z16 | G8 G4 G4 | G6 FE D8 | D8 D4 F4- | F2 E2 D2 C2 D4 C4- | C4 B,4 C8 | z8 G8 | G4 G4 G6 FE | %8
 D8 D8 | D4 F6 E2 D2 C2 | D2 C2 _B,2 A,2 G,4 C4- | C4 B,4 C8 | z8 G8 | G4 G4 A8 | F8 D2 E2 F2 G2 | %15
 A2 G2 A6 G2 G4- | G4 ^F4 G8- | G8 z8 | z8 G4 G4 | G8 G6 A2 | B2 G2 c8 B4 | c8 z8 | c8 c4 c4 | %23
 c8 A8 | c8 c4 c4- | c2 B2 A2 G2 A4 G4- | G4 ^F4 G8 | z8 (A8 | B8) A4 A4 | A8 A8 | A8 A4 A4 | %31
 G8 F8 | z8 D6 E2 | F6 G2 A6 B2 | c6 B2 A2 G2 F2 E2 | D4 G8 ^F4 | G16- | G16 |] %38
V:2
 c8 c4 c4 | c8 G8 | _B16 | _B6 AG F4 B4 | A4 _B8 G4 | G8 c8 | c4 c4 c8 | G8 _B8 | _B4 B4 B8- | %9
 B8 _B8- | B8 z4 G4 | G8 G4 G4 | E8 C8 | E8 F6 G2 | A8 z4 d4 | f8 f2 e2 d2 c2 | d8 B8 | c8 c4 c4 | %18
 e6 f2 g8 | z4 e4 e8 | z4 g4 g8 | e4 a8 g2 f2 | (e8 f8) | f4 f4 f8 | (c8 e8) | z4 d4 d4 c4 | %26
 d8 B8 | z8 z4 f4 | d4 e4 f8 | f8 f8 | f4 f4 f8 | e4 d4 d6 e2 | f6 g2 a8- | a8 a8- | a16 | %35
 d4 e4 d8 | B12 c4 | d16 |] %38
V:3
 z16 | z8 G8 | G4 G4 G8- | G4 F2 E2 D8 | F8 F4 E4 | D8 C8- | C8 z8 | z8 G8 | G4 G4 G8 | D8 F8- | %10
 F4 F4 E8 | D8 C8- | C8 z8 | c8 c4 c4 | d8 B8 | z4 d4 c4 B4 | A8 G8 | z8 G4 G4 | G8 G6 A2 | %19
 B4 c6 B2 c4- | c4 e4 d8 | c16 | z8 c8 | c4 c4 c8 | A8 c8 | c4 c4 c2 B2 A2 G2 | A8 G8- | %27
 G4 E4 (F8 | G8) F4 F4 | F8 D8 | A6 B2 c4 d4 | B8 A8- | A8 z8 | D6 E2 F6 G2 | A6 B2 c4 d4 | %35
 B4 c4 A8 | G16- | G16 |] %38
V:4
[K:F] z8 C,8 | C,4 C,4 C,8 | G,,16 | G,,8 B,,4 B,,4 | F,,4 B,,8 C,4 | G,,8 z8 | C,8 C,4 C,4 | %7
 C,8 G,,8- | G,,8 G,,6 A,,2 | B,,2 C,2 D,6 C,2 A,,4 | B,,8 z4 C,4 | G,,8 G,8 | G,4 G,4 E,8 | %13
 C,8 F,8 | D,8 G,8 | z4 F,8 G,4 | D,8 z4 E,4 | C,12 C,4 | C,8 E,6 F,2 | G,4 C,4 E,8 | C,8 G,8 | %21
 A,4 F,8 E,2 D,2 | C,8 z8 | F,8 F,4 F,4 | F,8 C,8 | F,4 F,6 G,2 E,4 | D,8 G,,8 | %27
 G,,2 A,,2 =B,,2 C,2 (D,8 | G,,8) D,4 D,4 | D,6 E,2 F,8 | F,6 G,2 A,4 D,4 | E,4 G,4 D,8 | %32
 D,6 E,2 F,6 G,2 | A,8 D,4 D4 | C2 =B,2 A,2 G,2 F,2 E,2 D,4 | G,4 C,4 D,8 | G,16- | G,16 |] %38

